X: 12
T: Lilting Fisherman, The
Z: rgbuzz
S: https://thesession.org/tunes/345#setting54182
R: reel
M: 4/4
L: 1/8
K: Dmaj
dB|A~F3 ABde|faec dBBd|A~F3 ABde|faec d2 dB|
A~F3 ABde|faec dBBd|A~F3 ABde|faec d3 e||
f~a3 f~b3|afec dBBd|f~a3 b3c'|d'c'ba b3c'|
d'c'ba bafb|afec dBBd|A~F3 ABde|faec d2 dB||

%-------------------- TUNE SEPARATOR --------------------%

